X:1
T:Title
%%score { ( 1 3 ) | ( 2 4 ) }
L:1/8
Q:1/4=100
M:4/4
K:G
V:1 treble nm="Grand Piano"
V:3 treble 
V:2 treble 
V:4 treble 
V:1
 D2 G2 A2 B2 | ce d2 dc [DGB]2 | z4 [Fc]2 A2 | [GB]2 .[DFA]2 [B,G]4 | %4
w: Johann~G.~B��ler * * *||||
 [B,D]2 [B,DG]2 [CFA]2 [DGB]2 | [CG]-[CGe] d2 dc [DGB]2 | z4 [Fc]2 A2 | [GB]2 .[DFA]2 [B,G]4 | %8
w: ||||
 [DGB]2 [DFA]2 [B,EG]2 [B,DF]2 | GF z G, D4 | d2 [Ge]2 dc [DGB]2 | .[Ec]2 z2 z4 |] %12
w: ||||
V:2
 [G,B,]2 [G,B,D]2 [G,CF]2 [G,DG]2 | E,C, [G,B,G]2 A,D G,2 | z C D,2 .[D,A,]2 [D,F,]2 | %3
 G,D z C G,4 | G,2 G,2 G,2 G,2 | E,C, [G,B,G]2 A,D G,2 | z C D,2 .[D,A,]2 [D,F,]2 | G,D z C G,4 | %8
 G,2 D,2 E,2 B,,2 | [E,B,D]2 .[A,,A,]2 [D,F,]4 | [G,B,G]2 [C,A,]2 B,D G,2 | z D D,2 G,4 |] %12
V:3
 x8 | [CG]2 z2 F2 z2 | .[DFA]2 [B,GB]2 z G,dc | x8 | x8 | .c2 z2 F2 z2 | .[DFA]2 [B,GB]2 z G,dc | %7
 x8 | x8 | z2 [^CE]2 z4 | z4 G2 z2 | G-[GB] [CFA]2 [B,G]4 |] %12
V:4
 x8 | z4 D,2 z2 | D,2 z2 z4 | D,2 D,2 z4 | x8 | z4 D,2 z2 | D,2 z2 z4 | D,2 D,2 z4 | x8 | x8 | %10
 z4 D,2 z2 | C,2 z2 z4 |] %12

